img/favicon.svg

<?xml version="1.0"?>
<svg xmlns="http://www.w3.org/2000/svg" xmlns:xlink="http://www.w3.org/1999/xlink" xmlns:svgjs="http://svgjs.com/svgjs" version="1.1" width="512" height="512" x="0" y="0" viewBox="0 0 512 512.001" style="enable-background:new 0 0 512 512" xml:space="preserve" class=""><g><path xmlns="http://www.w3.org/2000/svg" d="m372.261719 463.78125-102.351563-154.210938c-20.167968 8.519532-42.238281 13.386719-65.375 13.792969l115.992188 174.753907c5.769531 8.695312 15.457031 13.882812 25.910156 13.882812 6.09375 0 12.019531-1.792969 17.128906-5.183594 14.261719-9.46875 18.164063-28.773437 8.695313-43.035156zm0 0" fill="#252b42" data-original="#000000" style="" class=""/><path xmlns="http://www.w3.org/2000/svg" d="m0 83.425781v126.679688c9.097656-5.414063 19.714844-8.535157 31.046875-8.535157h31.046875v-109.609374h-31.046875c-11.335937 0-21.949219-3.121094-31.046875-8.535157zm0 0" fill="#252b42" data-original="#000000" style="" class=""/><path xmlns="http://www.w3.org/2000/svg" d="m31.046875 323.402344c-11.335937 0-21.949219-3.121094-31.046875-8.535156v166.082031c0 17.117187 13.929688 31.042969 31.046875 31.042969 17.121094 0 31.046875-13.925782 31.046875-31.042969v-157.546875zm0 0" fill="#252b42" data-original="#000000" style="" class=""/><path xmlns="http://www.w3.org/2000/svg" d="m201.394531 293.53125c80.925781 0 146.765625-65.839844 146.765625-146.765625s-65.839844-146.765625-146.765625-146.765625h-170.347656c-17.121094 0-31.046875 13.929688-31.046875 31.046875s13.929688 31.046875 31.046875 31.046875h170.347656c46.6875 0 84.671875 37.984375 84.671875 84.671875 0 46.691406-37.984375 84.671875-84.671875 84.671875h-170.347656c-17.121094 0-31.046875 13.929688-31.046875 31.046875 0 17.121094 13.929688 31.046875 31.046875 31.046875zm0 0" fill="#252b42" data-original="#000000" style="" class=""/></g></svg>

<svg xmlns="http://www.w3.org/2000/svg" width="24" height="24" viewBox="0 0 512 512.001"><path xmlns="http://www.w3.org/2000/svg" d="M372.262 463.781L269.91 309.571c-20.168 8.519-42.238 13.386-65.375 13.792l115.992 174.754c5.77 8.696 15.457 13.883 25.91 13.883 6.094 0 12.02-1.793 17.13-5.184 14.261-9.468 18.163-28.773 8.695-43.035zm0 0M0 83.426v126.68a60.528 60.528 0 0131.047-8.536h31.047V91.96H31.047A60.517 60.517 0 010 83.427zm0 0M31.047 323.402A60.517 60.517 0 010 314.867V480.95c0 17.117 13.93 31.043 31.047 31.043 17.121 0 31.047-13.926 31.047-31.043V323.402zm0 0" fill="#252b42" data-original="#000000"/><path xmlns="http://www.w3.org/2000/svg" d="M201.395 293.531c80.925 0 146.765-65.84 146.765-146.765S282.32 0 201.395 0H31.047C13.926 0 0 13.93 0 31.047s13.93 31.047 31.047 31.047h170.348c46.687 0 84.671 37.984 84.671 84.672 0 46.691-37.984 84.672-84.671 84.672H31.047C13.926 231.438 0 245.368 0 262.483c0 17.121 13.93 31.047 31.047 31.047zm0 0" fill="#252b42" data-original="#000000"/></svg>
